public/svg/icon/bcc.svg

<svg xmlns="http://www.w3.org/2000/svg" xmlns:xlink="http://www.w3.org/1999/xlink" width="32" height="32" viewBox="0 0 32 32"><defs><linearGradient id="bcc-c" x1="50%" x2="50%" y1="0%" y2="100%"><stop offset="0%" stop-color="#FFF" stop-opacity=".5"/><stop offset="100%" stop-opacity=".5"/></linearGradient><circle id="bcc-b" cx="16" cy="15" r="15"/><filter id="bcc-a" width="111.7%" height="111.7%" x="-5.8%" y="-4.2%" filterUnits="objectBoundingBox"><feOffset dy=".5" in="SourceAlpha" result="shadowOffsetOuter1"/><feGaussianBlur in="shadowOffsetOuter1" result="shadowBlurOuter1" stdDeviation=".5"/><feComposite in="shadowBlurOuter1" in2="SourceAlpha" operator="out" result="shadowBlurOuter1"/><feColorMatrix in="shadowBlurOuter1" values="0 0 0 0 0 0 0 0 0 0 0 0 0 0 0 0 0 0 0.199473505 0"/></filter><path id="bcc-e" d="M7.35104,18.3208 C7.34256,15.30768 9.46432,12.77984 12.4984,12.21136 C12.75808,12.16336 12.83152,12.07632 12.82512,11.82208 C12.80816,11.14608 12.80912,10.46928 12.82512,9.79328 C12.8304,9.5496 12.7528,9.40512 12.54384,9.2688 C11.8152,8.7936 11.51744,7.9304 11.78384,7.15328 C12.06528,6.33216 12.81184,5.8216 13.67184,5.86224 C14.44288,5.89872 15.14672,6.47168 15.35504,7.23248 C15.56432,7.99696 15.2728,8.82832 14.59488,9.25872 C14.35488,9.41072 14.28048,9.56448 14.28848,9.83584 C14.30864,10.51152 14.30064,11.18848 14.29152,11.86464 C14.2888,12.06096 14.31792,12.16608 14.55072,12.19632 C14.9937949,12.2545445 15.4267253,12.3735856 15.83728,12.55008 C15.99136,12.616 16.07408,12.57552 16.17712,12.46208 C17.6124267,10.8807467 19.0517867,9.30309333 20.4952,7.72912 C20.644,7.56736 20.60096,7.45568 20.5328,7.28816 C20.1808,6.42064 20.38672,5.48416 21.0512,4.86432 C21.65664,4.29936 22.6592,4.13808 23.38288,4.48896 C24.2352,4.90224 24.70304,5.6936 24.6448,6.62352 C24.56672,7.86848 23.35744,8.80528 22.12928,8.54992 C21.88048,8.49824 21.73552,8.5584 21.57456,8.73632 C20.23888,10.2126933 18.8976,11.684 17.55072,13.15024 C17.38816,13.3272 17.3648,13.42224 17.56816,13.59824 C19.77152,15.51984 20.37168,18.41648 19.11616,21.05424 C19.02128,21.2536 19.04224,21.36832 19.1952,21.51392 C19.5632,21.86304 19.9184,22.22432 20.2704,22.5888 C20.4104,22.73376 20.54112,22.77232 20.7488,22.71984 C21.55968,22.5152 22.39872,22.87984 22.80336,23.58208 C23.2142771,24.2964546 23.1078752,25.1957977 22.5416,25.79456 C21.98752,26.38352 21.08336,26.5544 20.37984,26.2032 C19.61184,25.8192 19.18784,24.9976 19.3704,24.1552 C19.42288,23.91328 19.3672,23.77536 19.20528,23.6216 C18.90768,23.3392 18.61696,23.0488 18.33808,22.748 C18.17536,22.572 18.07424,22.56928 17.8872,22.74368 C15.98912,24.51376 13.78672,24.97184 11.3568,24.10848 C8.94096,23.25104 7.35824,20.9024 7.35104,18.3208"/><filter id="bcc-d" width="120.2%" height="115.9%" x="-10.1%" y="-5.7%" filterUnits="objectBoundingBox"><feOffset dy=".5" in="SourceAlpha" result="shadowOffsetOuter1"/><feGaussianBlur in="shadowOffsetOuter1" result="shadowBlurOuter1" stdDeviation=".5"/><feColorMatrix in="shadowBlurOuter1" values="0 0 0 0 0 0 0 0 0 0 0 0 0 0 0 0 0 0 0.204257246 0"/></filter></defs><g fill="none" fill-rule="evenodd"><g fill-rule="nonzero"><use fill="#000" filter="url(#bcc-a)" xlink:href="#bcc-b"/><use fill="#F7931C" fill-rule="evenodd" xlink:href="#bcc-b"/><use fill="url(#bcc-c)" fill-rule="evenodd" style="mix-blend-mode:soft-light" xlink:href="#bcc-b"/><circle cx="16" cy="15" r="14.5" stroke="#000" stroke-opacity=".097"/></g><g fill-rule="nonzero"><use fill="#000" filter="url(#bcc-d)" xlink:href="#bcc-e"/><use fill="#FFF" fill-rule="evenodd" xlink:href="#bcc-e"/></g></g></svg>

<svg xmlns="http://www.w3.org/2000/svg" xmlns:xlink="http://www.w3.org/1999/xlink" width="32" height="32" viewBox="0 0 32 32"><defs><filter id="a" width="111.7%" height="111.7%" x="-5.8%" y="-4.2%" filterUnits="objectBoundingBox"><feOffset dy=".5" in="SourceAlpha" result="shadowOffsetOuter1"/><feGaussianBlur in="shadowOffsetOuter1" result="shadowBlurOuter1" stdDeviation=".5"/><feComposite in="shadowBlurOuter1" in2="SourceAlpha" operator="out" result="shadowBlurOuter1"/><feColorMatrix in="shadowBlurOuter1" values="0 0 0 0 0 0 0 0 0 0 0 0 0 0 0 0 0 0 0.199473505 0"/></filter><filter id="d" width="120.2%" height="115.9%" x="-10.1%" y="-5.7%" filterUnits="objectBoundingBox"><feOffset dy=".5" in="SourceAlpha" result="shadowOffsetOuter1"/><feGaussianBlur in="shadowOffsetOuter1" result="shadowBlurOuter1" stdDeviation=".5"/><feColorMatrix in="shadowBlurOuter1" values="0 0 0 0 0 0 0 0 0 0 0 0 0 0 0 0 0 0 0.204257246 0"/></filter><linearGradient id="c" x1="50%" x2="50%" y1="0%" y2="100%"><stop offset="0%" stop-color="#FFF" stop-opacity=".5"/><stop offset="100%" stop-opacity=".5"/></linearGradient><circle id="b" cx="16" cy="15" r="15"/><path id="e" d="M7.351 18.32c-.008-3.012 2.113-5.54 5.147-6.109.26-.048.334-.135.327-.389a41.633 41.633 0 010-2.029c.005-.243-.072-.388-.281-.524-.729-.475-1.027-1.339-.76-2.116a1.875 1.875 0 011.888-1.29c.77.036 1.475.609 1.683 1.37.21.764-.082 1.595-.76 2.026-.24.152-.315.305-.307.577.02.676.013 1.352.004 2.029-.003.196.026.301.259.331.443.059.876.178 1.286.354.154.066.237.026.34-.088a1249.61 1249.61 0 014.318-4.733c.149-.162.106-.273.038-.44-.352-.868-.146-1.805.518-2.425.606-.565 1.608-.726 2.332-.375.852.413 1.32 1.205 1.262 2.135-.078 1.244-1.288 2.181-2.516 1.926-.249-.052-.393.008-.554.186a787.317 787.317 0 01-4.024 4.414c-.163.177-.186.272.017.448 2.204 1.922 2.804 4.818 1.548 7.456-.095.2-.074.314.08.46.367.349.722.71 1.074 1.075.14.145.271.183.479.13.81-.204 1.65.16 2.054.863a1.867 1.867 0 01-.261 2.213c-.554.589-1.459.76-2.162.408-.768-.384-1.192-1.205-1.01-2.048.053-.242-.003-.38-.165-.533a19.247 19.247 0 01-.867-.874c-.163-.176-.264-.179-.45-.004-1.899 1.77-4.101 2.228-6.531 1.364-2.416-.857-3.999-3.206-4.006-5.787"/></defs><g fill="none"><use fill="#000" filter="url(#a)" xlink:href="#b"/><use fill="#F7931C" fill-rule="evenodd" xlink:href="#b"/><use fill="url(#c)" fill-rule="evenodd" style="mix-blend-mode:soft-light" xlink:href="#b"/><circle cx="16" cy="15" r="14.5" stroke="#000" stroke-opacity=".097"/><use fill="#000" filter="url(#d)" xlink:href="#e"/><use fill="#FFF" fill-rule="evenodd" xlink:href="#e"/></g></svg>
